source/img/icon-mail.svg

<svg enable-background="new 0 0 32 32" height="32" viewBox="0 0 32 32" width="32" xmlns="http://www.w3.org/2000/svg"><path d="m28 5h-24c-2.209 0-4 1.792-4 4v13c0 2.209 1.791 4 4 4h24c2.209 0 4-1.791 4-4v-13c0-2.208-1.791-4-4-4zm-26 5.25 6.999 5.25-6.999 5.25zm28 11.75c0 1.104-.898 2-2 2h-24c-1.103 0-2-.896-2-2l7.832-5.875 4.368 3.277c.533.397 1.166.6 1.8.6.633 0 1.266-.201 1.799-.6l4.369-3.277zm0-1.25-7-5.25 7-5.25zm-12.801-2.148c-.35.263-.763.4-1.199.4s-.851-.139-1.2-.4l-4.135-3.102-.833-.625-7.832-5.874v-.001c0-1.103.897-2 2-2h24c1.102 0 2 .897 2 2z" fill="#333"/></svg>

<svg height="32" width="32" xmlns="http://www.w3.org/2000/svg"><path d="M28 5H4a4 4 0 0 0-4 4v13a4 4 0 0 0 4 4h24a4 4 0 0 0 4-4V9a4 4 0 0 0-4-4zM2 10.25l6.999 5.25L2 20.75zM30 22c0 1.104-.898 2-2 2H4c-1.103 0-2-.896-2-2l7.832-5.875 4.368 3.277a3 3 0 0 0 3.599 0l4.369-3.277zm0-1.25l-7-5.25 7-5.25zm-12.801-2.148c-.35.263-.763.4-1.199.4s-.851-.139-1.2-.4L10.665 15.5l-.833-.625L2 9.001V9c0-1.103.897-2 2-2h24c1.102 0 2 .897 2 2z" fill="#333"/></svg>
